!!!COM: Mozart, Wolfgang Amadeus
!!!OTL: Musikalische Würfelspiele, Kontre-Tänze
!!!SCA: K<sup>6</sup> Anh. C30.01 (K<sup>3</sup> Anh. 294d)
**kern	**kern
*staff2	*staff2
*clefF4	*clefG2
*M2/4	*M2/4
*MM110	*MM110
*>[A,A1,A,A2,B]	*>[A,A1,A,A2,B]
*>norep[A,A2,B]	*>norep[A,A2,B]
*>A	*>A
=7	=7
4C	8cc
.	8cc
4C	8ee
.	8ee
=81	=81
4C	8cc
.	8g
4r	8cc
.	8ee
=100	=100
4GG	16b
.	16a
.	16g
.	16a
4GG	16b
.	16cc
.	16dd
.	16b
=15	=15
4C	16cc
.	16ee
.	16gg
.	16ee
4C	8cc
.	8cc
=117	=117
16D	8aa
16A	.
16F#	4ff#
16A	.
16D	.
16A	.
16F#	8dd
16A	.
=140	=140
16D	8gg
16B	.
16G	4dd
16B	.
16D	.
16B	.
16G	8b
16B	.
=168	=168
4C	8ee
.	4cc
4D	.
.	16a
.	16f#
=89	=89
*>A1	*>A1
4GG	4g 4b 4gg
16G	4r
16F	.
16E	.
16D	.
=89:|!	=89:|!
*>A2	*>A2
4GG	4g 4b 4gg
16GG	4r
16AA	.
16BB	.
16C#	.
=116||	=116||
*>B	*>B
8D	8dd
16C#	4ff#
16D	.
16Cn	.
16D	.
16C	8aa
16D	.
=79	=79
4BB 4G	8gg
.	16bb
.	16gg
4GG	8dd
.	16gg
.	16dd
=138	=138
16C	8gg
16E	.
16G	4ee
16E	.
16C	.
16E	.
16G	8cc
16E	.
=141	=141
4G	8dd
.	8b
4GG	8g
.	8b
=151	=151
16C	4cc
16E	.
16G	.
16E	.
4C	8ee
.	8gg
=32	=32
4C	8ccc
.	8gg
4r	8ee
.	8cc
=108	=108
4G	16ff
.	16aa
.	16ff
.	16dd
4GG	16b
.	16dd
.	16b
.	16g
=74	=74
4C	4cc
4CC	4c
==	==
*-	*-
